X: 11
T:The Welsh Fusiliers
M:6/8
L:1/8
Q:130
C:Trad
S:Hugh Mellor
R:Jig
A:Wales
Z:brian_martin12345@yahoo.com
K:D
A|def efg|agfe3|dBBB2A|dBBB2A|defefg|agf e3|cAAA2d|cAAA2||]
f/g/|agf gfe|fed efg|dBBB2A|dBBB2f/g/|agf gfe|fed efg|dAAA2A|dAAA2||
